lib/brands/icons/web-dev.svg

<svg xmlns="http://www.w3.org/2000/svg" fill="none" aria-hidden="true" viewBox="0 0 48 48"><g id="web.dev-Icon"><g id="Group"><path id="Vector" fill="#00C9DB" d="M37.9022 31.2046H25.7651C25.6288 31.2046 25.356 31.2046 25.2196 31.341L16.0827 38.5687C15.9464 38.705 15.9464 38.8414 16.0827 38.9778C16.0827 39.1141 16.2191 39.1141 16.3555 39.1141H38.0386C40.2205 39.1141 42.1297 37.2049 41.9933 34.8866C41.857 32.7047 39.9478 31.2046 37.9022 31.2046Z"/><path id="Vector_2" fill="#0D55FF" d="M28 23.5908C27.8637 22.4999 27.3182 21.4089 26.4999 20.727L12.4537 9.54458C10.6809 8.18087 8.22617 8.45361 6.86245 10.2264C5.49874 11.9993 5.77148 14.454 7.54431 15.8177L17.7722 24L7.54431 32.1822C5.77148 33.546 5.49874 36.0007 6.86245 37.7735C8.22617 39.5463 10.6809 39.8191 12.4537 38.4553L26.4999 27.0001C27.4545 26.1819 28 25.0909 28 23.8636V23.5908Z"/><path id="Vector_3" fill="#7000F2" d="M41.993 35.1594C41.993 37.3413 40.2202 39.1141 38.0383 39.1141C35.8563 39.1141 34.0835 37.3413 34.0835 35.1594C34.0835 32.9774 35.8563 31.2046 38.0383 31.2046C40.2202 31.2046 41.993 32.9774 41.993 35.1594Z"/></g></g></svg>

<svg xmlns="http://www.w3.org/2000/svg" fill="none" aria-hidden="true" viewBox="0 0 48 48"><path fill="#00C9DB" d="M37.902 31.205H25.765c-.137 0-.41 0-.546.136l-9.137 7.228c-.136.136-.136.272 0 .409 0 .136.137.136.273.136h21.683c2.182 0 4.092-1.91 3.955-4.227-.136-2.182-2.046-3.682-4.091-3.682Z"/><path fill="#0D55FF" d="M28 23.59c-.136-1.09-.682-2.181-1.5-2.863L12.454 9.545c-1.773-1.364-4.228-1.091-5.592.681-1.363 1.773-1.09 4.228.682 5.592L17.772 24 7.544 32.182c-1.773 1.364-2.045 3.819-.682 5.591 1.364 1.773 3.819 2.046 5.592.682L26.5 27c.954-.818 1.5-1.91 1.5-3.136v-.273Z"/><path fill="#7000F2" d="M41.993 35.16a3.958 3.958 0 0 1-3.955 3.954 3.958 3.958 0 0 1-3.954-3.955 3.958 3.958 0 0 1 3.954-3.954 3.958 3.958 0 0 1 3.955 3.954Z"/></svg>
